src/icons/svg/qrcode.svg

<?xml version="1.0"?><svg xmlns="http://www.w3.org/2000/svg" width="40" height="40" viewBox="0 0 40 40"><path  d="m13.1 25.7v2.9h-2.9v-2.9h2.9z m0-17.1v2.8h-2.9v-2.8h2.9z m17.1 0v2.8h-2.8v-2.8h2.8z m-22.8 22.8h8.5v-8.5h-8.5v8.5z m0-17.1h8.5v-8.6h-8.5v8.6z m17.1 0h8.6v-8.6h-8.6v8.6z m-5.7 5.7v14.3h-14.3v-14.3h14.3z m11.4 11.4v2.9h-2.8v-2.9h2.8z m5.7 0v2.9h-2.8v-2.9h2.8z m0-11.4v8.6h-8.5v-2.9h-2.9v8.6h-2.9v-14.3h8.6v2.9h2.9v-2.9h2.8z m-17.1-17.1v14.2h-14.3v-14.2h14.3z m17.1 0v14.2h-14.3v-14.2h14.3z"></path></svg>

<svg xmlns="http://www.w3.org/2000/svg" width="40" height="40" viewBox="0 0 40 40"><path d="M13.1 25.7v2.9h-2.9v-2.9h2.9zm0-17.1v2.8h-2.9V8.6h2.9zm17.1 0v2.8h-2.8V8.6h2.8zM7.4 31.4h8.5v-8.5H7.4v8.5zm0-17.1h8.5V5.7H7.4v8.6zm17.1 0h8.6V5.7h-8.6v8.6zM18.8 20v14.3H4.5V20h14.3zm11.4 11.4v2.9h-2.8v-2.9h2.8zm5.7 0v2.9h-2.8v-2.9h2.8zm0-11.4v8.6h-8.5v-2.9h-2.9v8.6h-2.9V20h8.6v2.9h2.9V20h2.8zM18.8 2.9v14.2H4.5V2.9h14.3zm17.1 0v14.2H21.6V2.9h14.3z"/></svg>
